svg/u1f469_200d_1f466.svg

<svg viewBox="0 0 128 128" xmlns="http://www.w3.org/2000/svg">
  <g id="hairGroup_2_">
    <path id="hair_10_" d="M64.38,4.2c-27.01,0-26.79,24.97-26.79,25.37c0,16.17,1.24,39.02,7.71,48.01 c2.57,3.56,7.53,3.76,7.53,3.76L64,81.32l11.18,0.02c0,0,4.96-0.2,7.53-3.76c6.47-8.99,7.71-31.84,7.71-48.01 C90.41,29.17,91.38,4.2,64.38,4.2z" fill="#543930"/>
    <radialGradient id="hairHighlights_3_" cx="63.9992" cy="87.2088" gradientTransform="matrix(1 0 0 -1.1901 0 144.5769)" gradientUnits="userSpaceOnUse" r="31.3028">
      <stop offset="0.7936" stop-color="#6D4C41" stop-opacity="0"/>
      <stop offset="1" stop-color="#6D4C41"/>
    </radialGradient>
    <path id="hairHighlights_2_" d="M64.38,4.2c-27.01,0-26.79,24.97-26.79,25.37 c0,16.17,1.24,39.02,7.71,48.01c2.57,3.56,7.53,3.76,7.53,3.76L64,81.32l11.18,0.02c0,0,4.96-0.2,7.53-3.76 c6.47-8.99,7.71-31.84,7.71-48.01C90.41,29.17,91.38,4.2,64.38,4.2z" fill="url(#hairHighlights_3_)"/>
  </g>
  <g>
    <linearGradient id="SVGID_1_" gradientTransform="matrix(1 0 0 -1 0 128)" gradientUnits="userSpaceOnUse" x1="64.001" x2="64.001" y1="4.2258" y2="59.4436">
      <stop offset="0" stop-color="#530EEB"/>
      <stop offset="1" stop-color="#651FFF"/>
    </linearGradient>
    <path d="M75.21,67.4c-1.83-0.43-6.52-0.65-11.21-0.65s-9.38,0.22-11.21,0.65 c-11.23,2.67-20.86,9.43-20.86,25.43V124h1.5h1.5h58.14h1.5h1.5V92.83C96.07,76.83,86.44,70.07,75.21,67.4z" fill="url(#SVGID_1_)"/>
  </g>
  <g id="neck_1_">
    <path d="M64,74.16L64,74.16c-3.87,0-7-3.13-7-7v-6.42h14v6.42C71,71.03,67.87,74.16,64,74.16z" fill="#E59600"/>
  </g>
  <g id="arm_1_">
    <linearGradient id="SVGID_2_" gradientTransform="matrix(1 0 0 -1 0 128)" gradientUnits="userSpaceOnUse" x1="36.929" x2="36.929" y1="3.9467" y2="30.1792">
      <stop offset="0.6037" stop-color="#FFCA28"/>
      <stop offset="1" stop-color="#FFB300"/>
    </linearGradient>
    <polygon fill="url(#SVGID_2_)" points="31.93,124 32.93,124 33.93,124 39.93,124 40.93,124 41.93,124 41.93,96.82 31.93,96.82 "/>
  </g>
  <g id="arm">
    <linearGradient id="SVGID_3_" gradientTransform="matrix(1 0 0 -1 0 128)" gradientUnits="userSpaceOnUse" x1="91.071" x2="91.071" y1="3.9467" y2="30.1792">
      <stop offset="0.6037" stop-color="#FFCA28"/>
      <stop offset="1" stop-color="#FFB300"/>
    </linearGradient>
    <polygon fill="url(#SVGID_3_)" points="86.07,96.82 86.07,124 87.07,124 88.07,124 94.07,124 95.07,124 96.07,124 96.07,96.82 "/>
  </g>
  <path id="head_2_" d="M64,11.85L64,11.85L64,11.85c-11.36,0-21.88,8.45-21.88,26.36 c0,14.39,8.91,22.9,16.67,25.64c1.85,0.65,3.63,0.98,5.22,0.98c1.57,0,3.35-0.33,5.18-0.97c7.76-2.73,16.7-11.25,16.7-25.65 C85.88,20.29,75.36,11.85,64,11.85z" fill="#FFCA28"/>
  <path id="mouth_2_" d="M69.49,51.54c-2.08,1.24-8.89,1.24-10.97,0c-1.19-0.71-2.41,0.38-1.92,1.46 c0.49,1.07,4.21,3.54,7.42,3.54s6.88-2.47,7.37-3.54C71.89,51.91,70.69,50.83,69.49,51.54z" fill="#795548"/>
  <path id="nose_2_" d="M66.52,46.2c-0.07-0.03-0.14-0.04-0.21-0.05h-4.62c-0.07,0.01-0.14,0.03-0.21,0.05 c-0.42,0.17-0.65,0.6-0.45,1.06c0.2,0.46,1.12,1.76,2.97,1.76c1.85,0,2.77-1.3,2.97-1.76C67.17,46.8,66.94,46.37,66.52,46.2z" fill="#E59600"/>
  <g id="eyes_2_">
    <ellipse cx="53.27" cy="40.13" fill="#404040" rx="3.22" ry="3.33"/>
    <ellipse cx="74.73" cy="40.13" fill="#404040" rx="3.21" ry="3.33"/>
  </g>
  <g id="eyebrows_2_">
    <path d="M58.05,34.15c-0.61-0.81-2.03-1.99-4.78-1.99s-4.17,1.18-4.78,1.99c-0.27,0.36-0.2,0.77-0.01,1.02 c0.17,0.23,0.69,0.45,1.26,0.26c0.57-0.19,1.68-0.77,3.54-0.78c1.86,0.01,2.97,0.59,3.54,0.78c0.57,0.19,1.08-0.02,1.26-0.26 C58.25,34.93,58.32,34.51,58.05,34.15z" fill="#6D4C41"/>
    <path d="M79.51,34.15c-0.61-0.81-2.03-1.99-4.78-1.99s-4.17,1.18-4.78,1.99c-0.27,0.36-0.2,0.77-0.01,1.02 c0.17,0.23,0.69,0.45,1.26,0.26c0.57-0.19,1.68-0.77,3.54-0.78c1.86,0.01,2.97,0.59,3.54,0.78c0.57,0.19,1.08-0.02,1.26-0.26 C79.71,34.93,79.78,34.51,79.51,34.15z" fill="#6D4C41"/>
  </g>
  <g id="hairGroup_1_">
    <g id="hair">
      <path d="M64.38,4.2c-27.01,0-26.79,24.97-26.79,25.37c0,5.11,0.12,10.88,0.5,16.68l7.76,15.53 c0,0-1.34-12.17-1.49-20.42c-0.02-1.06-0.2-3.72,0.31-6.04c0.79-1.96,1.83-3.48,3.17-3.78c14.72-3.31,23.06-11.12,23.06-11.12 c2.17,4.73,8.94,9.35,11.38,11.1c0.69,0.5,1.21,2.11,1.6,4.11c0.21,2.07,0.13,4.34,0.11,5.67l-2.01,20.44l7.95-15.48 c0-0.03,0.01-0.07,0.02-0.1c0.37-5.76,0.49-11.5,0.49-16.58C90.41,29.17,91.38,4.2,64.38,4.2z" fill="#543930"/>
    </g>
    <radialGradient id="hairHighlights_4_" cx="64.2195" cy="84.5584" gradientTransform="matrix(1 0 0 -1.2135 0 146.0553)" gradientUnits="userSpaceOnUse" r="32.7884">
      <stop offset="0.7945" stop-color="#6D4C41" stop-opacity="0"/>
      <stop offset="1" stop-color="#6D4C41"/>
    </radialGradient>
    <path id="hairHighlights_1_" d="M64.38,4.2c-27.01,0-26.79,24.97-26.79,25.37 c0,5.11,0.12,10.88,0.5,16.68l4.42-0.01c-0.04-1.92,1.31-13.81,5.32-14.71C62.55,28.21,70.89,20.4,70.89,20.4 c2.17,4.73,8.94,9.35,11.38,11.1c2,1.44,2.61,12.22,2.57,14.74h5.07c0-0.03,0.01-0.07,0.02-0.1c0.37-5.76,0.49-11.5,0.49-16.58 C90.41,29.17,91.38,4.2,64.38,4.2z" fill="url(#hairHighlights_4_)"/>
  </g>
  <g opacity="0.4">
    <radialGradient id="SVGID_4_" cx="64.0127" cy="13.3841" gradientTransform="matrix(1 0 0 -1 0 128)" gradientUnits="userSpaceOnUse" r="38.5143">
      <stop offset="0" stop-color="#212121"/>
      <stop offset="0.5743" stop-color="#616161" stop-opacity="0.05"/>
    </radialGradient>
    <path d="M75.29,67.43c-1.83-0.43-6.52-0.65-11.21-0.65S54.7,67,52.87,67.43 c-11.23,2.67-20.86,9.43-20.86,25.43v31.17h1.5h1.5h58.14h1.5h1.5V92.86C96.15,76.86,86.52,70.1,75.29,67.43z" fill="url(#SVGID_4_)"/>
  </g>
  <path id="shirt_2_" d="M85.57,121.98c0-9.84-12.51-13.14-16.87-13.14h-9.38c-4.35,0-16.88,3.3-16.88,13.14 c0,0-0.01,0.79-0.03,2.02h1.02h0.97h39.19h0.98h1.02C85.58,122.98,85.57,121.98,85.57,121.98z" fill="#B2EBF2"/>
  <g id="neck_2_">
    <path d="M64,116.3L64,116.3c-2.59,0-4.69-2.1-4.69-4.69v-3.6h9.39v3.6C68.69,114.2,66.59,116.3,64,116.3z" fill="#E59600"/>
  </g>
  <g id="ears_1_">
    <path d="M78.74,89.21h-3.97H53.24h-3.98c-3.18,0-5.78,2.5-5.78,5.56s2.6,5.56,5.78,5.56h3.97h21.53h3.97 c3.18,0,5.78-2.5,5.78-5.56S81.92,89.21,78.74,89.21z" fill="#E59600"/>
  </g>
  <path id="head_1_" d="M64,66.27L64,66.27L64,66.27c-9.33,0-17.96,9.8-17.96,23.9 c0,14.02,8.9,20.96,17.96,20.96s17.96-6.93,17.96-20.96C81.96,76.06,73.33,66.27,64,66.27z" fill="#FFCA28"/>
  <path id="mouth_1_" d="M68.32,100.89c-1.64,0.97-7,0.97-8.64,0c-0.94-0.56-1.9,0.3-1.51,1.15 c0.38,0.84,3.31,2.79,5.84,2.79s5.42-1.95,5.8-2.79C70.21,101.18,69.26,100.33,68.32,100.89z" fill="#795548"/>
  <path id="nose_1_" d="M65.98,96.72c-0.05-0.02-0.11-0.04-0.17-0.04h-3.63c-0.06,0.01-0.11,0.02-0.17,0.04 c-0.33,0.13-0.51,0.47-0.35,0.84c0.16,0.36,0.88,1.38,2.34,1.38c1.46,0,2.18-1.02,2.34-1.38C66.49,97.19,66.31,96.85,65.98,96.72z" fill="#E59600"/>
  <g id="eyes_1_">
    <ellipse cx="55.46" cy="94.07" fill="#404040" rx="2.53" ry="2.62"/>
    <ellipse cx="72.54" cy="94.07" fill="#404040" rx="2.53" ry="2.62"/>
  </g>
  <g id="eyebrows_1_">
    <path d="M51.5,89.41c0.1-0.13,0.13-0.21,0.31-0.39c0.4-0.42,1.18-0.92,1.94-1.18 c0.73-0.25,1.07-0.25,1.62-0.25c0.85,0,1.37,0.18,1.62,0.25c0.35,0.12,0.68,0.28,1.01,0.46c0.55,0.33,1.74,1.14,1.38,1.87 c-0.4,0.81-1.01,0.51-1.56,0.3c-0.24-0.07-1.32-0.5-2.46-0.5c-0.62,0-0.88,0.07-1.04,0.09c-0.73,0.12-1.28,0.35-1.38,0.38 c-0.38,0.15-0.65,0.37-1.08,0.2C51.4,90.44,51.21,89.84,51.5,89.41z" fill="#6D4C41"/>
    <path d="M76.5,89.41c-0.1-0.13-0.13-0.21-0.31-0.39c-0.39-0.42-1.18-0.92-1.94-1.18 c-0.73-0.25-1.07-0.25-1.62-0.25c-0.85,0-1.37,0.18-1.62,0.25c-0.35,0.12-0.68,0.28-1.01,0.46c-0.55,0.33-1.74,1.14-1.38,1.87 c0.4,0.81,1.01,0.51,1.56,0.3c0.24-0.07,1.32-0.5,2.46-0.5c0.62,0,0.88,0.07,1.04,0.09c0.73,0.12,1.28,0.35,1.38,0.38 c0.38,0.15,0.65,0.37,1.07,0.2C76.6,90.44,76.79,89.84,76.5,89.41z" fill="#6D4C41"/>
  </g>
  <g id="hairGroup_3_">
    <path id="hair_1_" d="M64.11,64.16c-19.93,0-21.32,16.28-20.51,23.4c0.71,6.29,3.99,7.84,3.99,7.84 s-0.65-5.49,0.4-9.47c0.83-3.16,2.8-5.5,2.8-5.5s3.6,3.12,10.3,5.15c3.23,0.98,7.37,0.49,7.37,0.49l-2.32-4.1 c0,0,3.8,2.79,6.16,3.32c3.03,0.68,5.25,0.39,5.25,0.39l-1.11-4.33c0,0,1.93,1.26,3.37,4.71c1.44,3.45,0.55,9.34,0.55,9.34 s3.46-1.54,4.02-7.84C85.07,79.67,83.95,64.16,64.11,64.16L64.11,64.16z" fill="#543930"/>
    <radialGradient id="hairHighlights_5_" cx="16.5033" cy="33.2604" gradientTransform="matrix(1.110000e-13 1.1138 -0.9718 1.030000e-13 96.2455 67.6364)" gradientUnits="userSpaceOnUse" r="23.0807">
      <stop offset="0.7945" stop-color="#6D4C41" stop-opacity="0"/>
      <stop offset="1" stop-color="#6D4C41"/>
    </radialGradient>
    <path id="hairHighlights_6_" d="M64.11,64.16c-19.93,0-21.32,16.28-20.51,23.4 c0.71,6.29,3.99,7.84,3.99,7.84s-0.65-5.49,0.4-9.47c0.83-3.16,2.8-5.5,2.8-5.5s3.6,3.12,10.3,5.15c3.23,0.98,7.37,0.49,7.37,0.49 l-2.32-4.1c0,0,3.8,2.79,6.16,3.32c3.03,0.68,5.25,0.39,5.25,0.39l-1.11-4.33c0,0,1.93,1.26,3.37,4.71 c1.44,3.45,0.55,9.34,0.55,9.34s3.46-1.54,4.02-7.84C85.07,79.67,83.95,64.16,64.11,64.16L64.11,64.16z" fill="url(#hairHighlights_5_)"/>
  </g>
</svg>

<svg viewBox="0 0 128 128" xmlns="http://www.w3.org/2000/svg">
  <defs>
    <linearGradient id="SVGID_1_" gradientTransform="matrix(1 0 0 -1 0 0)" gradientUnits="userSpaceOnUse" x1="64.001" x2="64.001" y1="-123.7742" y2="-68.5564">
      <stop offset="0" stop-color="#530EEB"/>
      <stop offset="1" stop-color="#651FFF"/>
    </linearGradient>
    <linearGradient id="SVGID_2_" gradientTransform="matrix(1 0 0 -1 0 0)" gradientUnits="userSpaceOnUse" x1="36.929" x2="36.929" y1="-124.0533" y2="-97.8208">
      <stop offset="0.6037" stop-color="#FFCA28"/>
      <stop offset="1" stop-color="#FFB300"/>
    </linearGradient>
    <linearGradient id="SVGID_3_" gradientTransform="matrix(1 0 0 -1 0 0)" gradientUnits="userSpaceOnUse" x1="91.071" x2="91.071" y1="-124.0533" y2="-97.8208">
      <stop offset="0.6037" stop-color="#FFCA28"/>
      <stop offset="1" stop-color="#FFB300"/>
    </linearGradient>
    <radialGradient id="SVGID_4_" cx="64.0127" cy="-114.6159" gradientTransform="matrix(1 0 0 -1 0 0)" gradientUnits="userSpaceOnUse" r="38.5143">
      <stop offset="0" stop-color="#212121"/>
      <stop offset="0.5743" stop-color="#616161" stop-opacity="0.05"/>
    </radialGradient>
    <radialGradient id="hairHighlights_3_" cx="63.9992" cy="-34.274185" gradientTransform="matrix(1 0 0 -1.1901 0 0)" gradientUnits="userSpaceOnUse" r="31.3028">
      <stop offset="0.7936" stop-color="#6D4C41" stop-opacity="0"/>
      <stop offset="1" stop-color="#6D4C41"/>
    </radialGradient>
    <radialGradient id="hairHighlights_4_" cx="64.2195" cy="-35.800314" gradientTransform="matrix(1 0 0 -1.2135 0 0)" gradientUnits="userSpaceOnUse" r="32.7884">
      <stop offset="0.7945" stop-color="#6D4C41" stop-opacity="0"/>
      <stop offset="1" stop-color="#6D4C41"/>
    </radialGradient>
    <radialGradient id="hairHighlights_5_" cx="77.229104" cy="-65.777982" gradientTransform="matrix(0 1.1138 -0.9718 0 0 0)" gradientUnits="userSpaceOnUse" r="23.0807">
      <stop offset="0.7945" stop-color="#6D4C41" stop-opacity="0"/>
      <stop offset="1" stop-color="#6D4C41"/>
    </radialGradient>
  </defs>
  <path id="hair_10_" d="M64.38,4.2 C37.37,4.2 37.59,29.17 37.59,29.57 C37.59,45.74 38.83,68.59 45.3,77.58 C47.87,81.14 52.83,81.34 52.83,81.34 L64,81.32 L75.18,81.34 C75.18,81.34 80.14,81.14 82.71,77.58 C89.18,68.59 90.42,45.74 90.42,29.57 C90.41,29.17 91.38,4.2 64.38,4.2 Z" fill="#543930"/>
  <path id="hairHighlights_2_" d="M64.38,4.2 C37.37,4.2 37.59,29.17 37.59,29.57 C37.59,45.74 38.83,68.59 45.3,77.58 C47.87,81.14 52.83,81.34 52.83,81.34 L64,81.32 L75.18,81.34 C75.18,81.34 80.14,81.14 82.71,77.58 C89.18,68.59 90.42,45.74 90.42,29.57 C90.41,29.17 91.38,4.2 64.38,4.2 Z" fill="url(#hairHighlights_3_)"/>
  <path d="M75.21,67.4 C73.38,66.97 68.69,66.75 64,66.75 C59.31,66.75 54.62,66.97 52.79,67.4 C41.56,70.07 31.93,76.83 31.93,92.83 L31.93,124 L33.43,124 L34.93,124 L93.07,124 L94.57,124 L96.07,124 L96.07,92.83 C96.07,76.83 86.44,70.07 75.21,67.4 Z" fill="url(#SVGID_1_)"/>
  <path d="M64,74.16 L64,74.16 C60.13,74.16 57,71.03 57,67.16 L57,60.74 L71,60.74 L71,67.16 C71,71.03 67.87,74.16 64,74.16 Z" fill="#E59600"/>
  <path d="M31.93,124 L32.93,124 L33.93,124 L39.93,124 L40.93,124 L41.93,124 L41.93,96.82 L31.93,96.82 Z" fill="url(#SVGID_2_)"/>
  <path d="M86.07,96.82 L86.07,124 L87.07,124 L88.07,124 L94.07,124 L95.07,124 L96.07,124 L96.07,96.82 Z" fill="url(#SVGID_3_)"/>
  <path id="head_2_" d="M64,11.85 L64,11.85 L64,11.85 C52.64,11.85 42.12,20.3 42.12,38.21 C42.12,52.6 51.03,61.11 58.79,63.85 C60.64,64.5 62.42,64.83 64.01,64.83 C65.58,64.83 67.36,64.5 69.19,63.86 C76.95,61.13 85.89,52.61 85.89,38.21 C85.88,20.29 75.36,11.85 64,11.85 Z" fill="#FFCA28"/>
  <path id="mouth_2_" d="M69.49,51.54 C67.41,52.78 60.6,52.78 58.52,51.54 C57.33,50.83 56.11,51.92 56.6,53 C57.09,54.07 60.81,56.54 64.02,56.54 C67.23,56.54 70.9,54.07 71.39,53 C71.89,51.91 70.69,50.83 69.49,51.54 Z" fill="#795548"/>
  <path id="nose_2_" d="M66.52,46.2 C66.45,46.17 66.38,46.16 66.31,46.15 L61.69,46.15 C61.62,46.16 61.55,46.18 61.48,46.2 C61.06,46.37 60.83,46.8 61.03,47.26 C61.23,47.72 62.15,49.02 64,49.02 C65.85,49.02 66.77,47.72 66.97,47.26 C67.17,46.8 66.94,46.37 66.52,46.2 Z" fill="#E59600"/>
  <path d="M56.49,40.13 A3.22 3.33 0 1 1 50.05,40.13 A3.22 3.33 0 1 1 56.49,40.13 Z" fill="#404040"/>
  <path d="M77.94,40.13 A3.21 3.33 0 1 1 71.52,40.13 A3.21 3.33 0 1 1 77.94,40.13 Z" fill="#404040"/>
  <path d="M58.05,34.15 C57.44,33.34 56.02,32.16 53.27,32.16 C50.52,32.16 49.1,33.34 48.49,34.15 C48.22,34.51 48.29,34.92 48.48,35.17 C48.65,35.4 49.17,35.62 49.74,35.43 C50.31,35.24 51.42,34.66 53.28,34.65 C55.14,34.66 56.25,35.24 56.82,35.43 C57.39,35.62 57.9,35.41 58.08,35.17 C58.25,34.93 58.32,34.51 58.05,34.15 Z" fill="#6D4C41"/>
  <path d="M79.51,34.15 C78.9,33.34 77.48,32.16 74.73,32.16 C71.98,32.16 70.56,33.34 69.95,34.15 C69.68,34.51 69.75,34.92 69.94,35.17 C70.11,35.4 70.63,35.62 71.2,35.43 C71.77,35.24 72.88,34.66 74.74,34.65 C76.6,34.66 77.71,35.24 78.28,35.43 C78.85,35.62 79.36,35.41 79.54,35.17 C79.71,34.93 79.78,34.51 79.51,34.15 Z" fill="#6D4C41"/>
  <path d="M64.38,4.2 C37.37,4.2 37.59,29.17 37.59,29.57 C37.59,34.68 37.71,40.45 38.09,46.25 L45.85,61.78 C45.85,61.78 44.51,49.61 44.36,41.36 C44.34,40.3 44.16,37.64 44.67,35.32 C45.46,33.36 46.5,31.84 47.84,31.54 C62.56,28.23 70.9,20.42 70.9,20.42 C73.07,25.15 79.84,29.77 82.28,31.52 C82.97,32.02 83.49,33.63 83.88,35.63 C84.09,37.7 84.01,39.97 83.99,41.3 L81.98,61.74 L89.93,46.26 C89.93,46.23 89.94,46.19 89.95,46.16 C90.32,40.4 90.44,34.66 90.44,29.58 C90.41,29.17 91.38,4.2 64.38,4.2 Z" fill="#543930"/>
  <path id="hairHighlights_1_" d="M64.38,4.2 C37.37,4.2 37.59,29.17 37.59,29.57 C37.59,34.68 37.71,40.45 38.09,46.25 L42.51,46.24 C42.47,44.32 43.82,32.43 47.83,31.53 C62.55,28.21 70.89,20.4 70.89,20.4 C73.06,25.13 79.83,29.75 82.27,31.5 C84.27,32.94 84.88,43.72 84.84,46.24 L89.91,46.24 C89.91,46.21 89.92,46.17 89.93,46.14 C90.3,40.38 90.42,34.64 90.42,29.56 C90.41,29.17 91.38,4.2 64.38,4.2 Z" fill="url(#hairHighlights_4_)"/>
  <path d="M75.29,67.43 C73.46,67 68.77,66.78 64.08,66.78 C59.39,66.78 54.7,67 52.87,67.43 C41.64,70.1 32.01,76.86 32.01,92.86 L32.01,124.03 L33.51,124.03 L35.01,124.03 L93.15,124.03 L94.65,124.03 L96.15,124.03 L96.15,92.86 C96.15,76.86 86.52,70.1 75.29,67.43 Z" fill="url(#SVGID_4_)" opacity="0.4"/>
  <path id="shirt_2_" d="M85.57,121.98 C85.57,112.14 73.06,108.84 68.7,108.84 L59.32,108.84 C54.97,108.84 42.44,112.14 42.44,121.98 C42.44,121.98 42.43,122.77 42.41,124 L43.43,124 L44.4,124 L83.59,124 L84.57,124 L85.59,124 C85.58,122.98 85.57,121.98 85.57,121.98 Z" fill="#B2EBF2"/>
  <path d="M64,116.3 L64,116.3 C61.41,116.3 59.31,114.2 59.31,111.61 L59.31,108.01 L68.7,108.01 L68.7,111.61 C68.69,114.2 66.59,116.3 64,116.3 Z" fill="#E59600"/>
  <path d="M78.74,89.21 L74.77,89.21 L53.24,89.21 L49.26,89.21 C46.08,89.21 43.48,91.71 43.48,94.77 C43.48,97.83 46.08,100.33 49.26,100.33 L53.23,100.33 L74.76,100.33 L78.73,100.33 C81.91,100.33 84.51,97.83 84.51,94.77 C84.51,91.71 81.92,89.21 78.74,89.21 Z" fill="#E59600"/>
  <path id="head_1_" d="M64,66.27 L64,66.27 L64,66.27 C54.67,66.27 46.04,76.07 46.04,90.17 C46.04,104.19 54.94,111.13 64,111.13 C73.06,111.13 81.96,104.2 81.96,90.17 C81.96,76.06 73.33,66.27 64,66.27 Z" fill="#FFCA28"/>
  <path id="mouth_1_" d="M68.32,100.89 C66.68,101.86 61.32,101.86 59.68,100.89 C58.74,100.33 57.78,101.19 58.17,102.04 C58.55,102.88 61.48,104.83 64.01,104.83 C66.54,104.83 69.43,102.88 69.81,102.04 C70.21,101.18 69.26,100.33 68.32,100.89 Z" fill="#795548"/>
  <path id="nose_1_" d="M65.98,96.72 C65.93,96.7 65.87,96.68 65.81,96.68 L62.18,96.68 C62.12,96.69 62.07,96.7 62.01,96.72 C61.68,96.85 61.5,97.19 61.66,97.56 C61.82,97.92 62.54,98.94 64,98.94 C65.46,98.94 66.18,97.92 66.34,97.56 C66.49,97.19 66.31,96.85 65.98,96.72 Z" fill="#E59600"/>
  <path d="M57.99,94.07 A2.53 2.62 0 1 1 52.93,94.07 A2.53 2.62 0 1 1 57.99,94.07 Z" fill="#404040"/>
  <path d="M75.07,94.07 A2.53 2.62 0 1 1 70.01,94.07 A2.53 2.62 0 1 1 75.07,94.07 Z" fill="#404040"/>
  <path d="M51.5,89.41 C51.6,89.28 51.63,89.2 51.81,89.02 C52.21,88.6 52.99,88.1 53.75,87.84 C54.48,87.59 54.82,87.59 55.37,87.59 C56.22,87.59 56.74,87.77 56.99,87.84 C57.34,87.96 57.67,88.12 58,88.3 C58.55,88.63 59.74,89.44 59.38,90.17 C58.98,90.98 58.37,90.68 57.82,90.47 C57.58,90.4 56.5,89.97 55.36,89.97 C54.74,89.97 54.48,90.04 54.32,90.06 C53.59,90.18 53.04,90.41 52.94,90.44 C52.56,90.59 52.29,90.81 51.86,90.64 C51.4,90.44 51.21,89.84 51.5,89.41 Z" fill="#6D4C41"/>
  <path d="M76.5,89.41 C76.4,89.28 76.37,89.2 76.19,89.02 C75.8,88.6 75.01,88.1 74.25,87.84 C73.52,87.59 73.18,87.59 72.63,87.59 C71.78,87.59 71.26,87.77 71.01,87.84 C70.66,87.96 70.33,88.12 70,88.3 C69.45,88.63 68.26,89.44 68.62,90.17 C69.02,90.98 69.63,90.68 70.18,90.47 C70.42,90.4 71.5,89.97 72.64,89.97 C73.26,89.97 73.52,90.04 73.68,90.06 C74.41,90.18 74.96,90.41 75.06,90.44 C75.44,90.59 75.71,90.81 76.13,90.64 C76.6,90.44 76.79,89.84 76.5,89.41 Z" fill="#6D4C41"/>
  <path id="hair_1_" d="M64.11,64.16 C44.18,64.16 42.79,80.44 43.6,87.56 C44.31,93.85 47.59,95.4 47.59,95.4 C47.59,95.4 46.94,89.91 47.99,85.93 C48.82,82.77 50.79,80.43 50.79,80.43 C50.79,80.43 54.39,83.55 61.09,85.58 C64.32,86.56 68.46,86.07 68.46,86.07 L66.14,81.97 C66.14,81.97 69.94,84.76 72.3,85.29 C75.33,85.97 77.55,85.68 77.55,85.68 L76.44,81.35 C76.44,81.35 78.37,82.61 79.81,86.06 C81.25,89.51 80.36,95.4 80.36,95.4 C80.36,95.4 83.82,93.86 84.38,87.56 C85.07,79.67 83.95,64.16 64.11,64.16 L64.11,64.16 Z" fill="#543930"/>
  <path id="hairHighlights_6_" d="M64.11,64.16 C44.18,64.16 42.79,80.44 43.6,87.56 C44.31,93.85 47.59,95.4 47.59,95.4 C47.59,95.4 46.94,89.91 47.99,85.93 C48.82,82.77 50.79,80.43 50.79,80.43 C50.79,80.43 54.39,83.55 61.09,85.58 C64.32,86.56 68.46,86.07 68.46,86.07 L66.14,81.97 C66.14,81.97 69.94,84.76 72.3,85.29 C75.33,85.97 77.55,85.68 77.55,85.68 L76.44,81.35 C76.44,81.35 78.37,82.61 79.81,86.06 C81.25,89.51 80.36,95.4 80.36,95.4 C80.36,95.4 83.82,93.86 84.38,87.56 C85.07,79.67 83.95,64.16 64.11,64.16 L64.11,64.16 Z" fill="url(#hairHighlights_5_)"/>
</svg>
